X:11201
T:Cooley's
R:Reel
B:Tuneworks Tunebook (https://www.tuneworks.co.uk/)
G:tuneworks
Z:Jon Warbrick <jon.warbrick@googlemail.com>
M:4/4
L:1/8
K:G
|: D2 | "Em"EBBA B2 EB | B2 AB dBAG | "D"(3FED AD BDAD | FDAD BAGF | 
"Em"EBBA B2 EB | B2 AB defg | "D"afef dBAF | DEFD "Em"E2 :|
|: gf | "Em"eB B2 egfg | eB B2 gedB | "D"A2 FA DAFA | BAFA defg | 
"C"eB B2 egfg | eB B2 defg | "D"afef dBAF | DEFD "Em"E2 :|
